22x22/panel/mnotify-none-wireframe.svg

<svg xmlns="http://www.w3.org/2000/svg" width="22" height="22" version="1.1">
 <defs>
  <style id="current-color-scheme" type="text/css">
   .ColorScheme-Text { color:#d3dae3; } .ColorScheme-Highlight { color:#4285f4; }
  </style>
 </defs>
 <path style="fill:none;stroke:currentColor;stroke-width:1.9997071;stroke-linecap:round;stroke-linejoin:round" class="ColorScheme-Text" d="M 11,8.35716 5,9.864 M 11,12.40384 10.1,8 4,5 5,9.864 v 0 M 17,10.897 10,8 12.400655,4 19,6.5 Z M 11.000001,17.99635 17,16.397237 V 10.897 l -6,1.50684 m 0,5.59251 V 12.40384 L 5,9.864 v 5.400781 z"/>
</svg>

<svg xmlns="http://www.w3.org/2000/svg" width="22" height="22"><defs><style id="current-color-scheme" type="text/css"></style></defs><path style="fill:none;stroke:currentColor;stroke-width:1.9997071;stroke-linecap:round;stroke-linejoin:round;color:#d3dae3" d="M11 8.357 5 9.864m6 2.54L10.1 8 4 5l1 4.864v0m12 1.033L10 8l2.4-4L19 6.5zm-6 7.1 6-1.6v-5.5l-6 1.507m0 5.592v-5.592l-6-2.54v5.4z"/></svg>
